!! 00048] TT[KA
!! NN
!!!OTL: Cai cha deng
!!!ARE: Asia, China, Fujian, Longyan
!! Ethnic Group: Han
!! II, 570
!!!SCT: C0264
!!!YEM: Copyright 1995, estate of Helmut Schaffrath.
**kern
*ICvox
*Ivox
*M2/4
*k[f#c#]
*D:
{4b
4a
=1
8f#
8a
8b
8a
=2
8.b
16a
4b}
=3
{8.b
16dd
4a
=4
8f#
8b
8a
8e
=5
8.f#
16e
4f#}
=6
{8.b
16dd
4a
=7
8f#
8a
8b
8a
=8
8.b
16a
4b}
=9
{8.b
16dd
4a
=10
8f#
8b
8a
8e
=11
8.f#
16e
4f#}
=12
{8.b
16a
4b
=13
8f#
8e
4f#}
=14
{8f#
8a
8f#
[8a
=15
8a]
4f#
8e
=16
8d
4B
8d
=17
2e}
=18
{8b
8b
8dd
16b
16a
=19
8g
8b
4a
=20
8dd
16b
16a
8g
16e
16g
=21
2a}
=22
{8g
8b
4a
=23
8g
8e
8g
16a
16g
=24
2e}
=25
{8g
8e
8g
8a
=26
2b
=27
8dd
16b
16a
8g
16e
16g
=28
2a}
=29
{8g
8b
4a
=30
8g
8e
8g
16a
16g
=31
2e}
==
!!!AGN: Wuge, Caicha. Xin minge
!! 2 Abschnitte mit verschiedenen Grundtoenen!
!!    Man singt und tanzt. Haelt dabei in der einen Hand einen
!!    schoenen Korb, in der anderen einen Faecher.
!!    Dieses Lied besteht aus 2 Teilen: Teil 1, Strophe 1-4) Phrasen 1-6,
!!    Teil 2, Strophen 5-8) Phrasen 7-10. Vor-, Zwischen- und Nachspiele
!!    weggelassen. +++ Grundton wechselt von D nach G!! +++ Zhuandiao:
!!    e SHANG - e YU
!!!ONB: ESAC (Essen Associative Code) Database: CHINA
!!!AMT: simple duple
!!!AIN: vox
!!!EED: Helmut Schaffrath
!!!EEV: 1.0
*-
!!!ONB: Tied note syntax fixed by Craig Sapp, 2004/05/03/
